X:1
T:5 Little Love Songs
T:Clasp mine closer, little dear white hand
T:To Berrick von Norden 
T:5 Little Love Songs
T:Liza Lehmann
T:5. Clasp mine closer, little dear white hand
T:Cora Randall Fabbri
T:Creative Commons copyright waiver (CC0 1.0 Universal)
T:Creative Commons copyright waiver (CC0 1.0 Universal)
T:Creative Commons copyright waiver (CC0 1.0 Universal)
T:Creative Commons copyright waiver (CC0 1.0 Universal)
T:Creative Commons copyright waiver (CC0 1.0 Universal)
C:Liza Lehmann
Z:Cora Randall Fabbri
Z:Creative Commons copyright waiver (CC0 1.0 Universal)
L:1/8
M:4/4
K:Bb
V:1 treble nm="Voice"
V:1
 z2 | z8 | z8 | z8 | z8 || z8 | !fermata!z8 ||!p! d2 B2 !>!e3 d | z8 | d2 B2 z4 | z8 | (Bc) d2 z4 | %12
w: |||||||Clasp mine clo- ser,||Clasp mine||All _ your|
 z8 |!<(! (^A=B)!<)! ^c2 ^f3 z | z8 | z8 |!>(! !tenuto!c !tenuto!d !tenuto!B z!>)! z4 | z8 | z8 || %19
w: |To _ a- wake|||un- der- neath|||
 z8 | c d !>!B z z4 | z8 | z8 | g2 d2 z4 | z8 | z8 | ^A ^G !>!A z z4 | z8 | z z z z G4- | %29
w: |in Life's sun,|||Straight- ly\-|||touch- es you||Hand.|
 G2 z2 z4 | z8 || z8 | z8 |!f! !>!f3 ^c c2 z2 | z8 | z8 | z8 | (!>!a3 f) f2 z2 | z8 | z8 | z8 || %41
w: _||||Pa- ra- dise||||Pa- ra- dise||||
[K:D]!mf! (A6 d2) | z8 | %43
w: I will||
 z4 z z z"^Note to transcriber:\nWe will follow the IMSLP\nedition's hypenation on \nsystem breaks\n" B | %44
w: be-|
 d4 d2 z d | a8- | a8- | a2 z2 z4 | z8 | z8 | z8 |"^." z8 | z8 | z8 | z8 ||[K:Bb]!p! d2 B2 z4 | %56
w: \- hold You ap-|pear.|_|||||||||Clasp mine|
 z8 | z8 | !>!d4 c2 z2 | !>!c4 B2 z2 | z8 | z8 | !fermata!z8 | z8 | z8 | z8 | z8 | z8 | %68
w: ||clo- ser,|clo- ser!....|||||||||
 !fermata!z8 |] %69
w: |

